X:938
T:Dennis Murphy's Slide
S:SMG, Edinburgh
Z:Nigel Gatherer
M:6/8
L:1/8
K:G
GA | B2A ABd | e2d d2B | AGA B2A | G3
G2A | B2A ABd | e2d d2B | AGA B2A | G3 G :|
d2 | d2g gfg | age dBd | eaa aba | g2a b2g |
d2g gfg | age d2B | eaa aba | g3 g :|
<end>
<start>
